assets/stickers/shapes/stickers/imgly_sticker_shapes_badge_15.svg

<svg height="2000" viewBox="0 0 1618 2000" width="1618" xmlns="http://www.w3.org/2000/svg"><path d="m0 0v1191.301c0 446.631 362.066 808.699 808.701 808.699 446.633 0 808.699-362.067 808.699-808.699v-1191.301zm1261.238 65.533h50v10h-50zm-80 0h50v10h-50zm-80 0h50v10h-50zm-800 0h50v10h-50zm-79.998 0h49.998v10h-49.998zm-80 0h50v10h-50zm-77.06 0h47.062v10h-37.062v45h-10zm0 85h10v50h-10zm0 80h10v50h-10zm0 80h10v50h-10zm0 80h10v50h-10zm0 80h10v50h-10zm0 80h10v50h-10zm0 80h10v50h-10zm0 80h10v50h-10zm0 80h10v50h-10zm0 80h10v50h-10zm0 80h10v50h-10zm0 80h10v50h-10zm0 80h10v50h-10zm0 80.004 10-.008c.015 16.511.581 33.2 1.688 49.605l-9.979.673c-1.121-16.624-1.696-33.538-1.709-50.27zm4.348 80.346 9.94-1.074c1.773 16.396 4.128 32.93 6.999 49.136l-9.847 1.744c-2.908-16.429-5.294-33.184-7.092-49.806zm12.965 79.421 9.768-2.146c3.533 16.096 7.667 32.273 12.286 48.09l-9.599 2.805c-4.684-16.033-8.873-32.435-12.455-48.749zm39.22 124.724c-6.411-15.453-12.369-31.324-17.71-47.172l9.477-3.193c5.271 15.635 11.146 31.289 17.473 46.533zm34.885 72.654c-8.048-14.662-15.691-29.784-22.722-44.947l9.072-4.205c6.935 14.958 14.477 29.876 22.417 44.34zm42.527 68.414c-9.583-13.704-18.815-27.905-27.441-42.21l8.563-5.164c8.511 14.112 17.619 28.123 27.073 41.644zm49.628 63.406c-10.994-12.586-21.698-25.707-31.816-38.998l7.957-6.058c9.983 13.113 20.544 26.062 31.393 38.479zm56.129 57.687c-12.278-11.332-24.326-23.226-35.811-35.349l7.263-6.877c11.329 11.962 23.216 23.694 35.33 34.877zm61.97 51.311c-13.411-9.938-26.661-20.468-39.383-31.293l6.479-7.613c12.554 10.681 25.625 21.065 38.856 30.873zm15.386-1722.967h50v10h-50zm51.71 1767.299c-14.392-8.43-28.691-17.469-42.506-26.864l5.625-8.27c13.627 9.271 27.737 18.188 41.937 26.505zm71.451 36.81c-15.224-6.827-30.411-14.266-45.139-22.108l4.7-8.826c14.527 7.737 29.512 15.075 44.531 21.812zm6.839-1794.109h-50v-10h50zm68.207 1822.969c-15.895-5.139-31.813-10.893-47.319-17.101l3.717-9.283c15.295 6.124 31.001 11.801 46.68 16.868zm11.793-1822.969h-50v-10h50zm66.02 1843.52c-16.359-3.38-32.812-7.368-48.896-11.854l2.687-9.633c15.869 4.423 32.098 8.354 48.233 11.691zm13.981-1843.52h-50v-10h50zm65.591 1855.51c-16.648-1.597-33.435-3.775-49.889-6.482l1.623-9.867c16.233 2.67 32.792 4.822 49.219 6.396zm14.409-1855.51h-50v-10h50zm57.462 1858.936c-13.896 0-27.949-.389-41.771-1.152l.553-9.982c16.434.906 33.156 1.274 49.641 1.089l.113 10c-2.841.027-5.687.045-8.536.045zm22.537-1858.936h-50v-10h50zm16.17 1857.945-.513-9.986c16.485-.845 33.124-2.258 49.455-4.197l1.181 9.93c-16.551 1.964-33.414 3.397-50.123 4.253zm63.83-1857.945h-50v-10h50zm16.196 1849.519-1.582-9.874c16.274-2.607 32.663-5.81 48.711-9.514l2.248 9.744c-16.266 3.754-32.88 6.998-49.377 9.644zm63.804-1849.519h-50v-10h50zm14.85 1832.485-2.646-9.646c15.894-4.356 31.837-9.319 47.394-14.75l3.295 9.441c-15.772 5.504-31.935 10.536-48.043 14.955zm65.15-1832.485h-50v-10h50zm11.265 1806.974-3.682-9.3c15.331-6.064 30.66-12.742 45.562-19.848l4.303 9.027c-15.103 7.203-30.642 13.969-46.183 20.121zm73.216-33.69-4.668-8.844c14.571-7.69 29.08-15.987 43.124-24.662l5.256 8.508c-14.239 8.793-28.945 17.203-43.712 24.998zm69.097-41.401-5.596-8.285c13.664-9.229 27.188-19.038 40.198-29.164l6.143 7.892c-13.185 10.261-26.893 20.206-40.745 29.557zm64.207-48.589-6.455-7.638c12.584-10.636 24.976-21.842 36.823-33.308l6.953 7.188c-12.009 11.62-24.568 22.98-37.321 33.758zm58.589-55.184-7.235-6.9c11.373-11.928 22.483-24.395 33.025-37.055l7.687 6.396c-10.687 12.834-21.948 25.47-33.477 37.559zm43.626-1628.11h-50v-10h50zm8.689 1566.984-7.938-6.084c10.021-13.069 19.727-26.653 28.849-40.374l8.328 5.537c-9.246 13.906-19.084 27.674-29.239 40.921zm45.42-66.366-8.545-5.194c8.558-14.076 16.739-28.62 24.314-43.229l8.877 4.605c-7.679 14.807-15.972 29.551-24.646 43.818zm25.891-1500.618h-50v-10h50zm12.086 1429.779-9.058-4.24c6.98-14.904 13.537-30.24 19.488-45.582l9.322 3.617c-6.029 15.55-12.677 31.096-19.752 46.205zm30.098-74.573-9.463-3.23c5.326-15.595 10.184-31.569 14.435-47.486l9.662 2.58c-4.312 16.133-9.237 32.33-14.634 48.136zm21.827-77.463-9.76-2.184c3.599-16.073 6.688-32.482 9.188-48.773l9.885 1.52c-2.535 16.511-5.667 33.145-9.313 49.437zm13.292-79.367-9.938-1.113c1.834-16.35 3.138-32.995 3.875-49.48l9.99.447c-.746 16.706-2.069 33.579-3.927 50.146zm4.681-83.962c0 1.21-.003 2.42-.009 3.628l-10-.049c.006-1.19.009-2.385.009-3.579v-46.396h10zm0-76.395h-10v-50h10zm0-80h-10v-50h10zm0-80h-10v-50h10zm0-80h-10v-50h10zm0-80h-10v-50h10zm0-80h-10v-50h10zm0-80h-10v-50h10zm0-80h-10v-50h10zm0-80h-10v-50h10zm0-80h-10v-50h10zm0-80h-10v-50.002h10zm0-80.001h-10v-50h10zm0-80h-10v-50h10zm0-79.999h-5v1.98h-46.982v-10h51.982z" fill="#fff" transform=""/></svg>

<?xml version="1.0" encoding="UTF-8"?>
<svg width="1618px" height="2000px" viewBox="0 0 1618 2000" version="1.1" xmlns="http://www.w3.org/2000/svg" xmlns:xlink="http://www.w3.org/1999/xlink">
    <!-- Generator: Sketch 43.1 (39012) - http://www.bohemiancoding.com/sketch -->
    <title>imgly_sticker_shapes_badge_15</title>
    <desc>Created with Sketch.</desc>
    <defs></defs>
    <g id="Page-1" stroke="none" stroke-width="1" fill="none" fill-rule="evenodd">
        <g id="Artboard" transform="translate(-7299.000000, -16630.000000)" fill-rule="nonzero" fill="#FFFFFF">
            <g id="badge_15" transform="translate(7299.000000, 16630.000000)">
                <path d="M0,0 L0,1191.301 C0,1637.932 362.066,2000 808.701,2000 C1255.334,2000 1617.4,1637.933 1617.4,1191.301 L1617.4,0 L0,0 Z M1261.238,65.533 L1311.238,65.533 L1311.238,75.533 L1261.238,75.533 L1261.238,65.533 Z M1181.238,65.533 L1231.238,65.533 L1231.238,75.533 L1181.238,75.533 L1181.238,65.533 Z M1101.238,65.533 L1151.238,65.533 L1151.238,75.533 L1101.238,75.533 L1101.238,65.533 Z M301.238,65.533 L351.238,65.533 L351.238,75.533 L301.238,75.533 L301.238,65.533 L301.238,65.533 Z M221.24,65.533 L271.238,65.533 L271.238,75.533 L221.24,75.533 L221.24,65.533 Z M141.24,65.533 L191.24,65.533 L191.24,75.533 L141.24,75.533 L141.24,65.533 Z M64.18,65.533 L111.242,65.533 L111.242,75.533 L74.18,75.533 L74.18,120.533 L64.18,120.533 L64.18,65.533 L64.18,65.533 Z M64.18,150.533 L74.18,150.533 L74.18,200.533 L64.18,200.533 L64.18,150.533 L64.18,150.533 Z M64.18,230.533 L74.18,230.533 L74.18,280.533 L64.18,280.533 L64.18,230.533 L64.18,230.533 Z M64.18,310.533 L74.18,310.533 L74.18,360.533 L64.18,360.533 L64.18,310.533 L64.18,310.533 Z M64.18,390.533 L74.18,390.533 L74.18,440.533 L64.18,440.533 L64.18,390.533 L64.18,390.533 Z M64.18,470.533 L74.18,470.533 L74.18,520.533 L64.18,520.533 L64.18,470.533 L64.18,470.533 Z M64.18,550.533 L74.18,550.533 L74.18,600.533 L64.18,600.533 L64.18,550.533 L64.18,550.533 Z M64.18,630.533 L74.18,630.533 L74.18,680.533 L64.18,680.533 L64.18,630.533 L64.18,630.533 Z M64.18,710.533 L74.18,710.533 L74.18,760.533 L64.18,760.533 L64.18,710.533 L64.18,710.533 Z M64.18,790.533 L74.18,790.533 L74.18,840.533 L64.18,840.533 L64.18,790.533 L64.18,790.533 Z M64.18,870.533 L74.18,870.533 L74.18,920.533 L64.18,920.533 L64.18,870.533 L64.18,870.533 Z M64.18,950.533 L74.18,950.533 L74.18,1000.533 L64.18,1000.533 L64.18,950.533 L64.18,950.533 Z M64.18,1030.533 L74.18,1030.533 L74.18,1080.533 L64.18,1080.533 L64.18,1030.533 L64.18,1030.533 Z M64.18,1110.533 L74.18,1110.533 L74.18,1160.533 L64.18,1160.533 L64.18,1110.533 L64.18,1110.533 Z M64.18,1190.537 L74.18,1190.529 C74.195,1207.04 74.761,1223.729 75.868,1240.134 L65.889,1240.807 C64.768,1224.183 64.193,1207.269 64.18,1190.537 Z M68.528,1270.883 L78.468,1269.809 C80.241,1286.205 82.596,1302.739 85.467,1318.945 L75.62,1320.689 C72.712,1304.26 70.326,1287.505 68.528,1270.883 Z M81.493,1350.304 L91.261,1348.158 C94.794,1364.254 98.928,1380.431 103.547,1396.248 L93.948,1399.053 C89.264,1383.02 85.075,1366.618 81.493,1350.304 Z M120.713,1475.028 C114.302,1459.575 108.344,1443.704 103.003,1427.856 L112.48,1424.663 C117.751,1440.298 123.626,1455.952 129.953,1471.196 L120.713,1475.028 Z M155.598,1547.682 C147.55,1533.02 139.907,1517.898 132.876,1502.735 L141.948,1498.53 C148.883,1513.488 156.425,1528.406 164.365,1542.87 L155.598,1547.682 Z M198.125,1616.096 C188.542,1602.392 179.31,1588.191 170.684,1573.886 L179.247,1568.722 C187.758,1582.834 196.866,1596.845 206.32,1610.366 L198.125,1616.096 Z M247.753,1679.502 C236.759,1666.916 226.055,1653.795 215.937,1640.504 L223.894,1634.446 C233.877,1647.559 244.438,1660.508 255.287,1672.925 L247.753,1679.502 Z M303.882,1737.189 C291.604,1725.857 279.556,1713.963 268.071,1701.84 L275.334,1694.963 C286.663,1706.925 298.55,1718.657 310.664,1729.84 L303.882,1737.189 Z M365.852,1788.5 C352.441,1778.562 339.191,1768.032 326.469,1757.207 L332.948,1749.594 C345.502,1760.275 358.573,1770.659 371.804,1780.467 L365.852,1788.5 Z M381.238,65.533 L431.238,65.533 L431.238,75.533 L381.238,75.533 L381.238,65.533 Z M432.948,1832.832 C418.556,1824.402 404.257,1815.363 390.442,1805.968 L396.067,1797.698 C409.694,1806.969 423.804,1815.886 438.004,1824.203 L432.948,1832.832 Z M504.399,1869.642 C489.175,1862.815 473.988,1855.376 459.26,1847.534 L463.96,1838.708 C478.487,1846.445 493.472,1853.783 508.491,1860.52 L504.399,1869.642 Z M511.238,75.533 L461.238,75.533 L461.238,65.533 L511.238,65.533 L511.238,75.533 Z M579.445,1898.502 C563.55,1893.363 547.632,1887.609 532.126,1881.401 L535.843,1872.118 C551.138,1878.242 566.844,1883.919 582.523,1888.986 L579.445,1898.502 Z M591.238,75.533 L541.238,75.533 L541.238,65.533 L591.238,65.533 L591.238,75.533 Z M657.258,1919.053 C640.899,1915.673 624.446,1911.685 608.362,1907.199 L611.049,1897.566 C626.918,1901.989 643.147,1905.92 659.282,1909.257 L657.258,1919.053 Z M671.239,75.533 L621.239,75.533 L621.239,65.533 L671.239,65.533 L671.239,75.533 Z M736.83,1931.043 C720.182,1929.446 703.395,1927.268 686.941,1924.561 L688.564,1914.694 C704.797,1917.364 721.356,1919.516 737.783,1921.09 L736.83,1931.043 Z M751.239,75.533 L701.239,75.533 L701.239,65.533 L751.239,65.533 L751.239,75.533 Z M808.701,1934.469 C794.805,1934.469 780.752,1934.08 766.93,1933.317 L767.483,1923.335 C783.917,1924.241 800.639,1924.609 817.124,1924.424 L817.237,1934.424 C814.396,1934.451 811.55,1934.469 808.701,1934.469 Z M831.238,75.533 L781.238,75.533 L781.238,65.533 L831.238,65.533 L831.238,75.533 Z M847.408,1933.478 L846.895,1923.492 C863.38,1922.647 880.019,1921.234 896.35,1919.295 L897.531,1929.225 C880.98,1931.189 864.117,1932.622 847.408,1933.478 Z M911.238,75.533 L861.238,75.533 L861.238,65.533 L911.238,65.533 L911.238,75.533 Z M927.434,1925.052 L925.852,1915.178 C942.126,1912.571 958.515,1909.368 974.563,1905.664 L976.811,1915.408 C960.545,1919.162 943.931,1922.406 927.434,1925.052 Z M991.238,75.533 L941.238,75.533 L941.238,65.533 L991.238,65.533 L991.238,75.533 Z M1006.088,1908.018 L1003.442,1898.372 C1019.336,1894.016 1035.279,1889.053 1050.836,1883.622 L1054.131,1893.063 C1038.359,1898.567 1022.196,1903.599 1006.088,1908.018 Z M1071.238,75.533 L1021.238,75.533 L1021.238,65.533 L1071.238,65.533 L1071.238,75.533 Z M1082.503,1882.507 L1078.821,1873.207 C1094.152,1867.143 1109.481,1860.465 1124.383,1853.359 L1128.686,1862.386 C1113.583,1869.589 1098.044,1876.355 1082.503,1882.507 Z M1155.719,1848.817 L1151.051,1839.973 C1165.622,1832.283 1180.131,1823.986 1194.175,1815.311 L1199.431,1823.819 C1185.192,1832.612 1170.486,1841.022 1155.719,1848.817 Z M1224.816,1807.416 L1219.22,1799.131 C1232.884,1789.902 1246.408,1780.093 1259.418,1769.967 L1265.561,1777.859 C1252.376,1788.12 1238.668,1798.065 1224.816,1807.416 Z M1289.023,1758.827 L1282.568,1751.189 C1295.152,1740.553 1307.544,1729.347 1319.391,1717.881 L1326.344,1725.069 C1314.335,1736.689 1301.776,1748.049 1289.023,1758.827 Z M1347.612,1703.643 L1340.377,1696.743 C1351.75,1684.815 1362.86,1672.348 1373.402,1659.688 L1381.089,1666.084 C1370.402,1678.918 1359.141,1691.554 1347.612,1703.643 Z M1391.238,75.533 L1341.238,75.533 L1341.238,65.533 L1391.238,65.533 L1391.238,75.533 Z M1399.927,1642.517 L1391.989,1636.433 C1402.01,1623.364 1411.716,1609.78 1420.838,1596.059 L1429.166,1601.596 C1419.92,1615.502 1410.082,1629.27 1399.927,1642.517 Z M1445.347,1576.151 L1436.802,1570.957 C1445.36,1556.881 1453.541,1542.337 1461.116,1527.728 L1469.993,1532.333 C1462.314,1547.14 1454.021,1561.884 1445.347,1576.151 Z M1471.238,75.533 L1421.238,75.533 L1421.238,65.533 L1471.238,65.533 L1471.238,75.533 Z M1483.324,1505.312 L1474.266,1501.072 C1481.246,1486.168 1487.803,1470.832 1493.754,1455.49 L1503.076,1459.107 C1497.047,1474.657 1490.399,1490.203 1483.324,1505.312 Z M1513.422,1430.739 L1503.959,1427.509 C1509.285,1411.914 1514.143,1395.94 1518.394,1380.023 L1528.056,1382.603 C1523.744,1398.736 1518.819,1414.933 1513.422,1430.739 Z M1535.249,1353.276 L1525.489,1351.092 C1529.088,1335.019 1532.177,1318.61 1534.677,1302.319 L1544.562,1303.839 C1542.027,1320.35 1538.895,1336.984 1535.249,1353.276 Z M1548.541,1273.909 L1538.603,1272.796 C1540.437,1256.446 1541.741,1239.801 1542.478,1223.316 L1552.468,1223.763 C1551.722,1240.469 1550.399,1257.342 1548.541,1273.909 Z M1553.222,1189.947 C1553.222,1191.157 1553.219,1192.367 1553.213,1193.575 L1543.213,1193.526 C1543.219,1192.336 1543.222,1191.141 1543.222,1189.947 L1543.222,1143.551 L1553.222,1143.551 L1553.222,1189.947 Z M1553.222,1113.552 L1543.222,1113.552 L1543.222,1063.552 L1553.222,1063.552 L1553.222,1113.552 Z M1553.222,1033.552 L1543.222,1033.552 L1543.222,983.552 L1553.222,983.552 L1553.222,1033.552 Z M1553.222,953.552 L1543.222,953.552 L1543.222,903.552 L1553.222,903.552 L1553.222,953.552 Z M1553.222,873.552 L1543.222,873.552 L1543.222,823.552 L1553.222,823.552 L1553.222,873.552 Z M1553.222,793.552 L1543.222,793.552 L1543.222,743.552 L1553.222,743.552 L1553.222,793.552 Z M1553.222,713.552 L1543.222,713.552 L1543.222,663.552 L1553.222,663.552 L1553.222,713.552 Z M1553.222,633.552 L1543.222,633.552 L1543.222,583.552 L1553.222,583.552 L1553.222,633.552 Z M1553.222,553.552 L1543.222,553.552 L1543.222,503.552 L1553.222,503.552 L1553.222,553.552 Z M1553.222,473.552 L1543.222,473.552 L1543.222,423.552 L1553.222,423.552 L1553.222,473.552 Z M1553.222,393.552 L1543.222,393.552 L1543.222,343.552 L1553.222,343.552 L1553.222,393.552 Z M1553.222,313.552 L1543.222,313.552 L1543.222,263.55 L1553.222,263.55 L1553.222,313.552 Z M1553.222,233.551 L1543.222,233.551 L1543.222,183.551 L1553.222,183.551 L1553.222,233.551 Z M1553.222,153.551 L1543.222,153.551 L1543.222,103.551 L1553.222,103.551 L1553.222,153.551 Z M1553.222,73.552 L1548.222,73.552 L1548.222,75.532 L1501.24,75.532 L1501.24,65.532 L1553.222,65.532 L1553.222,73.552 Z" id="Shape"></path>
            </g>
        </g>
    </g>
</svg>
